Newaita-dark/actions/16/link.svg

<svg height="16" viewBox="0 0 16 16" width="16" xmlns="http://www.w3.org/2000/svg"><g fill="#e0e0e0"><path d="m5.292969 4.09375c-2.199219 0-3.96875 1.769531-3.96875 3.96875s1.769531 3.96875 3.96875 3.96875h.992187c.183594 0 .328125-.144531.328125-.328125v-.664063c0-.183593-.144531-.328124-.328125-.328124h-.992187c-1.464844 0-2.648438-1.183594-2.648438-2.648438s1.183594-2.644531 2.648438-2.644531h.992187c.183594 0 .328125-.148438.328125-.332031v-.660157c0-.183593-.144531-.332031-.328125-.332031zm4.300781 0c-.183594 0-.332031.148438-.332031.332031v.660157c0 .183593.148437.332031.332031.332031h.992188c1.464843 0 2.644531 1.179687 2.644531 2.644531s-1.179688 2.648438-2.644531 2.648438h-.992188c-.183594 0-.332031.144531-.332031.328124v.664063c0 .183594.148437.328125.332031.328125h.992188c2.199218 0 3.96875-1.769531 3.96875-3.96875s-1.769532-3.96875-3.96875-3.96875zm0 0"/><path d="m5.621094 7.402344h4.632812c.183594 0 .332032.148437.332032.332031v.660156c0 .183594-.148438.332031-.332032.332031h-4.632812c-.179688 0-.328125-.148437-.328125-.332031v-.660156c0-.183594.148437-.332031.328125-.332031zm0 0"/></g></svg>

<svg xmlns="http://www.w3.org/2000/svg" xmlns:xlink="http://www.w3.org/1999/xlink" width="16px" height="16px" viewBox="0 0 16 16" version="1.1">
<g id="surface1">
     <defs>
  <style id="current-color-scheme" type="text/css">
   .ColorScheme-Text { color:#eeeeee; } .ColorScheme-Highlight { color:#424242; }
  </style>
 </defs>
<path style="fill:currentColor" class="ColorScheme-Text" d="M 5.292969 4.09375 C 3.09375 4.09375 1.324219 5.863281 1.324219 8.0625 C 1.324219 10.261719 3.09375 12.03125 5.292969 12.03125 L 6.285156 12.03125 C 6.46875 12.03125 6.613281 11.886719 6.613281 11.703125 L 6.613281 11.039062 C 6.613281 10.855469 6.46875 10.710938 6.285156 10.710938 L 5.292969 10.710938 C 3.828125 10.710938 2.644531 9.527344 2.644531 8.0625 C 2.644531 6.597656 3.828125 5.417969 5.292969 5.417969 L 6.285156 5.417969 C 6.46875 5.417969 6.613281 5.269531 6.613281 5.085938 L 6.613281 4.425781 C 6.613281 4.242188 6.46875 4.09375 6.285156 4.09375 Z M 9.59375 4.09375 C 9.410156 4.09375 9.261719 4.242188 9.261719 4.425781 L 9.261719 5.085938 C 9.261719 5.269531 9.410156 5.417969 9.59375 5.417969 L 10.585938 5.417969 C 12.050781 5.417969 13.230469 6.597656 13.230469 8.0625 C 13.230469 9.527344 12.050781 10.710938 10.585938 10.710938 L 9.59375 10.710938 C 9.410156 10.710938 9.261719 10.855469 9.261719 11.039062 L 9.261719 11.703125 C 9.261719 11.886719 9.410156 12.03125 9.59375 12.03125 L 10.585938 12.03125 C 12.785156 12.03125 14.554688 10.261719 14.554688 8.0625 C 14.554688 5.863281 12.785156 4.09375 10.585938 4.09375 Z M 9.59375 4.09375 "/>
     <defs>
  <style id="current-color-scheme" type="text/css">
   .ColorScheme-Text { color:#eeeeee; } .ColorScheme-Highlight { color:#424242; }
  </style>
 </defs>
<path style="fill:currentColor" class="ColorScheme-Text" d="M 5.621094 7.402344 L 10.253906 7.402344 C 10.4375 7.402344 10.585938 7.550781 10.585938 7.734375 L 10.585938 8.394531 C 10.585938 8.578125 10.4375 8.726562 10.253906 8.726562 L 5.621094 8.726562 C 5.441406 8.726562 5.292969 8.578125 5.292969 8.394531 L 5.292969 7.734375 C 5.292969 7.550781 5.441406 7.402344 5.621094 7.402344 Z M 5.621094 7.402344 "/>
</g>
</svg>
